X: 610
T: Across The Black River
R: jig
M: 6/8
K: Cdorian
GAB|~c3 cBc|GBc B2 g|fdB Bcd|~c2B GAB|
~c3 cdc|( (3B/A/G/ F2) Bdf|fgb gfd|c3:|
cde|fgf f2d|c2B G3|FGB dcB|d2f cde
fgf f2d|c2B G3|cdc AGF|G3:|

